school977/img/logo-big.svg

<svg width="231" height="61" viewBox="0 0 231 61" fill="none" xmlns="http://www.w3.org/2000/svg">
<path fill-rule="evenodd" clip-rule="evenodd" d="M27.4791 30.7L0.970703 23.0359L20.8682 3.8999L27.4791 30.7Z" fill="#F39200"/>
<path fill-rule="evenodd" clip-rule="evenodd" d="M34.0752 57.4838L7.50195 49.8359L27.4805 30.7L34.0752 57.4838Z" fill="#FDD400"/>
<path fill-rule="evenodd" clip-rule="evenodd" d="M54.0375 38.2831L27.4805 30.6999L47.3618 11.4991L54.0375 38.2831Z" fill="#E94591"/>
<path fill-rule="evenodd" clip-rule="evenodd" d="M27.4805 30.7L54.0213 38.2993L34.0752 57.4838L27.4805 30.7Z" fill="#C52D88"/>
<path fill-rule="evenodd" clip-rule="evenodd" d="M0.970703 23.0197L27.4791 30.7L7.50059 49.8359L0.970703 23.0197Z" fill="#3AAA35"/>
<path fill-rule="evenodd" clip-rule="evenodd" d="M27.48 30.7L20.8691 3.8999L47.3614 11.4992L27.48 30.7Z" fill="#FFED00"/>
<path fill-rule="evenodd" clip-rule="evenodd" d="M27.4791 30.7L0.970703 23.0359L20.8682 3.8999L27.4791 30.7Z" fill="#F39200"/>
<path fill-rule="evenodd" clip-rule="evenodd" d="M34.0752 57.4838L7.50195 49.8359L27.4805 30.7L34.0752 57.4838Z" fill="#787FBD"/>
<path fill-rule="evenodd" clip-rule="evenodd" d="M54.0375 38.2831L27.4805 30.6999L47.3618 11.4991L54.0375 38.2831Z" fill="#E94792"/>
<path fill-rule="evenodd" clip-rule="evenodd" d="M27.4805 30.7L54.0213 38.2993L34.0752 57.4838L27.4805 30.7Z" fill="#64B6E7"/>
<path fill-rule="evenodd" clip-rule="evenodd" d="M0.970703 23.0197L27.4791 30.7L7.50059 49.8359L0.970703 23.0197Z" fill="#93C461"/>
<path fill-rule="evenodd" clip-rule="evenodd" d="M27.48 30.7L20.8691 3.8999L47.3614 11.4992L27.48 30.7Z" fill="#FFED00"/>
<path d="M85.0156 29.0311H62.8496V10.6891H65.6852V26.3576H72.5229V10.6891H75.3585V26.3576H82.1962V10.6891H85.0318V29.0311H85.0156Z" fill="#0067B1"/>
<path d="M102.565 29.0311L98.79 23.1817C98.2553 22.3392 97.8016 21.7882 97.4452 21.4966C97.0887 21.2211 96.5378 21.0753 95.7762 21.0753H93.443V29.0149H90.6074V10.6729H93.443V18.3532H95.5656C96.2947 18.3532 96.8457 18.2073 97.2183 17.9319C97.591 17.6564 98.0447 17.0893 98.6118 16.2468L102.177 10.6729H105.401L101.237 17.1379C100.297 18.4828 99.5192 19.3092 98.9359 19.6332C99.3409 19.779 99.7136 20.0383 100.07 20.4109C100.427 20.7836 100.88 21.3994 101.415 22.2581L105.757 29.0149H102.565V29.0311Z" fill="#0067B1"/>
<path d="M110.503 13.233C112.318 11.402 114.522 10.4946 117.098 10.4946C119.674 10.4946 121.894 11.402 123.709 13.233C125.54 15.0639 126.447 17.2676 126.447 19.8439C126.447 22.4364 125.54 24.64 123.709 26.4548C121.878 28.2857 119.674 29.1931 117.098 29.1931C114.522 29.1931 112.318 28.2857 110.503 26.4548C108.689 24.6238 107.781 22.4202 107.781 19.8439C107.781 17.2676 108.689 15.0639 110.503 13.233ZM121.748 15.0639C120.485 13.8001 118.945 13.1682 117.114 13.1682C115.283 13.1682 113.744 13.8001 112.496 15.0639C111.249 16.3278 110.617 17.9319 110.617 19.8439C110.617 21.7883 111.249 23.3762 112.496 24.64C113.744 25.9039 115.283 26.5196 117.114 26.5196C118.945 26.5196 120.501 25.8877 121.748 24.64C123.012 23.3762 123.628 21.7883 123.628 19.8439C123.628 17.9319 122.996 16.344 121.748 15.0639Z" fill="#0067B1"/>
<path d="M136.413 15.8903L131.179 29.0149H128.068L135.635 10.6729H137.288L144.774 29.0149H141.663L136.413 15.8903Z" fill="#0067B1"/>
<path d="M151.902 24.9155L150.216 29.0311H147.105L154.672 10.6891H156.325L163.811 29.0311H160.7L159.047 24.9155H151.902ZM155.483 15.8417L152.89 22.242H158.075L155.483 15.8417Z" fill="#0067B1"/>
<path d="M230.974 38.2668H62.8496V40.0492H230.974V38.2668Z" fill="#0067B1"/>
<path d="M66.5598 49.3662H68.5042L71.761 57.6622H72.8791V60.9839H71.0157V59.477H64.0645V60.9839H62.2012V57.6622H63.3192L66.5598 49.3662ZM67.5482 52.0559L65.3284 57.6784H69.7518L67.5482 52.0559Z" fill="#0067B1"/>
<path d="M82.1791 49.3662V59.4608H80.2509V53.1415L76.4756 59.4608H74.8066V49.3662H76.7348V55.8961L80.5588 49.3662H82.1791Z" fill="#0067B1"/>
<path d="M94.4773 51.1485L93.1325 52.4285C92.2251 51.4563 91.1881 50.9703 90.0377 50.9703C89.0655 50.9703 88.2553 51.2943 87.591 51.9586C86.9266 52.623 86.6026 53.4331 86.6026 54.4053C86.6026 55.0859 86.7484 55.6854 87.0401 56.2039C87.3317 56.7224 87.753 57.1437 88.2877 57.4353C88.8224 57.727 89.4219 57.889 90.0701 57.889C90.621 57.889 91.1395 57.7918 91.5932 57.5811C92.0469 57.3705 92.5654 56.9978 93.1163 56.4469L94.4125 57.808C93.6672 58.5371 92.9542 59.0394 92.2899 59.3311C91.6256 59.6228 90.864 59.7524 90.0215 59.7524C88.4497 59.7524 87.1697 59.2501 86.1651 58.2617C85.1605 57.2733 84.6582 55.9932 84.6582 54.4377C84.6582 53.4331 84.885 52.542 85.3387 51.748C85.7924 50.9703 86.4405 50.3383 87.2993 49.8522C88.1581 49.3661 89.0655 49.1393 90.0377 49.1393C90.864 49.1393 91.6742 49.3175 92.4519 49.674C93.2459 49.9981 93.9102 50.5003 94.4773 51.1485Z" fill="#0067B1"/>
<path d="M95.8555 49.3662H101.446V51.262H99.5984V59.477H97.654V51.262H95.8555V49.3662Z" fill="#0067B1"/>
<path d="M106.551 49.3662H108.495L112.384 59.4608H110.391L109.597 57.3868H105.481L104.655 59.4608H102.662L106.551 49.3662ZM107.539 52.0559L106.178 55.5234H108.884L107.539 52.0559Z" fill="#0067B1"/>
<path d="M114.57 49.3662H116.515V53.1739H119.885V49.3662H121.829V59.4608H119.885V55.0373H116.515V59.4608H114.57V49.3662Z" fill="#0067B1"/>
<path d="M124.844 59.4768V49.3822H126.788V57.7593H130.175V49.3822H132.119V57.7593H134.177V60.9999H132.378V59.493H124.844V59.4768Z" fill="#0067B1"/>
<path d="M135.957 49.3662H137.869V59.4608H135.957V49.3662Z" fill="#0067B1"/>
<path d="M148.095 49.3661V59.4607H146.167V53.1414L142.392 59.4607H140.723V49.3661H142.651V55.896L146.475 49.3661H148.095ZM141.662 46.6602H143.186C143.299 46.8546 143.477 46.9842 143.688 47.0815C143.898 47.1787 144.158 47.2273 144.466 47.2273C144.773 47.2273 145.065 47.1787 145.308 47.0652C145.47 46.9842 145.616 46.8546 145.746 46.6602H147.269C147.188 47.2435 146.896 47.7134 146.442 48.0537C145.989 48.3939 145.324 48.5883 144.482 48.5883C143.915 48.5883 143.445 48.5073 143.056 48.3453C142.667 48.1833 142.359 47.9564 142.132 47.6647C141.873 47.3893 141.727 47.049 141.662 46.6602Z" fill="#0067B1"/>
<path d="M151.092 49.3662H153.036V53.1739H156.406V49.3662H158.351V59.4608H156.406V55.0373H153.036V59.4608H151.092V49.3662Z" fill="#0067B1"/>
<path d="M164.461 49.3662H166.405L170.294 59.4608H168.301L167.507 57.3868H163.392L162.565 59.4608H160.572L164.461 49.3662ZM165.449 52.0559L164.088 55.5234H166.794L165.449 52.0559Z" fill="#0067B1"/>
<path d="M181.893 49.123C183.319 49.123 184.55 49.6416 185.587 50.6786C186.608 51.7156 187.127 52.9794 187.127 54.4701C187.127 55.9446 186.624 57.1923 185.604 58.2131C184.583 59.2339 183.351 59.7524 181.909 59.7524C180.386 59.7524 179.138 59.2339 178.134 58.1807C177.129 57.1275 176.627 55.8798 176.627 54.4377C176.627 53.4655 176.854 52.5906 177.324 51.7804C177.794 50.9702 178.426 50.3221 179.252 49.8522C180.062 49.3499 180.937 49.123 181.893 49.123ZM181.861 51.0026C180.921 51.0026 180.143 51.3267 179.495 51.9748C178.863 52.623 178.539 53.4493 178.539 54.4539C178.539 55.5719 178.944 56.4469 179.738 57.1113C180.354 57.6136 181.083 57.8728 181.877 57.8728C182.784 57.8728 183.562 57.5487 184.21 56.8844C184.858 56.2201 185.166 55.4099 185.166 54.4539C185.166 53.4979 184.842 52.6715 184.194 52.0072C183.578 51.3267 182.8 51.0026 181.861 51.0026Z" fill="#0067B1"/>
<path d="M198.925 51.1485L197.58 52.4285C196.672 51.4563 195.635 50.9703 194.485 50.9703C193.513 50.9703 192.703 51.2943 192.038 51.9586C191.374 52.623 191.05 53.4331 191.05 54.4053C191.05 55.0859 191.196 55.6854 191.487 56.2039C191.779 56.7224 192.2 57.1437 192.735 57.4353C193.27 57.727 193.869 57.889 194.517 57.889C195.068 57.889 195.587 57.7918 196.04 57.5811C196.494 57.3705 197.013 56.9978 197.564 56.4469L198.86 57.808C198.114 58.5371 197.401 59.0394 196.737 59.3311C196.073 59.6066 195.311 59.7524 194.469 59.7524C192.897 59.7524 191.617 59.2501 190.612 58.2617C189.608 57.2733 189.105 55.9932 189.105 54.4377C189.105 53.4331 189.332 52.542 189.786 51.748C190.24 50.9703 190.888 50.3383 191.747 49.8522C192.589 49.3823 193.513 49.1393 194.485 49.1393C195.311 49.1393 196.121 49.3175 196.899 49.674C197.693 49.9981 198.357 50.5003 198.925 51.1485Z" fill="#0067B1"/>
<path d="M201.305 59.4768V49.3822H202.893C203.816 49.3822 204.497 49.447 204.918 49.5605C205.518 49.7225 206.004 50.0141 206.36 50.4516C206.717 50.8891 206.895 51.3914 206.895 51.9909C206.895 52.3798 206.814 52.7201 206.652 53.0441C206.49 53.352 206.23 53.6599 205.858 53.9191C206.474 54.2108 206.927 54.5672 207.203 55.0047C207.478 55.4422 207.624 55.9445 207.624 56.544C207.624 57.1111 207.478 57.6296 207.186 58.0995C206.895 58.5694 206.522 58.9097 206.052 59.1527C205.582 59.3796 204.95 59.493 204.14 59.493H201.305V59.4768ZM203.233 51.2132V53.3358H203.654C204.124 53.3358 204.464 53.2386 204.707 53.0441C204.934 52.8497 205.048 52.5742 205.048 52.234C205.048 51.9261 204.934 51.6669 204.724 51.4886C204.513 51.3104 204.173 51.2132 203.735 51.2132H203.233ZM203.233 55.0533V57.6458H203.719C204.513 57.6458 205.048 57.5486 205.339 57.338C205.615 57.1435 205.761 56.8357 205.761 56.463C205.761 56.0255 205.599 55.6853 205.274 55.426C204.95 55.1668 204.4 55.0533 203.654 55.0533H203.233Z" fill="#0067B1"/>
<path d="M210.041 49.3662H211.953V59.4608H210.041V49.3662Z" fill="#0067B1"/>
<path d="M213.814 49.3662H219.405V51.262H217.557V59.477H215.613V51.262H213.814V49.3662Z" fill="#0067B1"/>
<path d="M224.492 49.3662H226.437L230.325 59.4608H228.332L227.538 57.3868H223.423L222.597 59.4608H220.604L224.492 49.3662ZM225.481 52.0559L224.12 55.5234H226.826L225.481 52.0559Z" fill="#0067B1"/>
<path d="M178.428 0.400024C172.32 0.400024 168.123 4.45079 168.123 10.1867C168.123 15.5824 171.85 19.5036 177.359 19.9411L171.331 28.707H178.623L187.113 15.8254C188.15 14.2861 188.734 12.3418 188.734 10.2029C188.734 4.4508 184.569 0.400024 178.428 0.400024ZM178.428 14.0431C176.322 14.0431 174.459 12.6172 174.459 10.2029C174.459 7.78866 176.322 6.36279 178.428 6.36279C180.567 6.36279 182.398 7.75626 182.398 10.2029C182.398 12.6496 180.567 14.0431 178.428 14.0431Z" fill="#0067B1"/>
<path d="M191.424 7.05958H202.604L200.141 13.1682H197.613L195.167 19.2768H197.678L193.871 28.7071H200.611L204.419 19.2768H207.19L209.652 13.1682H206.865L209.652 6.26564V0.967163H191.424V7.05958Z" fill="#0067B1"/>
<path d="M230.973 0.967163H212.744V7.05958H223.908L221.461 13.1682H218.934L216.471 19.2768H218.999L215.191 28.7071H221.931L225.739 19.2768H228.51L230.973 13.1682H228.186L230.973 6.26564V0.967163Z" fill="#0067B1"/>
</svg>

<svg width="231" height="61" fill="none" xmlns="http://www.w3.org/2000/svg"><path fill-rule="evenodd" clip-rule="evenodd" d="M27.48 30.7L.97 23.036 20.869 3.9l6.611 26.8z" fill="#F39200"/><path fill-rule="evenodd" clip-rule="evenodd" d="M34.075 57.484L7.502 49.836 27.48 30.7l6.594 26.784z" fill="#FDD400"/><path fill-rule="evenodd" clip-rule="evenodd" d="M54.038 38.283L27.48 30.7l19.88-19.2 6.677 26.783z" fill="#E94591"/><path fill-rule="evenodd" clip-rule="evenodd" d="M27.48 30.7l26.541 7.6-19.946 19.184L27.48 30.7z" fill="#C52D88"/><path fill-rule="evenodd" clip-rule="evenodd" d="M.97 23.02l26.51 7.68L7.5 49.836.97 23.02z" fill="#3AAA35"/><path fill-rule="evenodd" clip-rule="evenodd" d="M27.48 30.7L20.87 3.9l26.491 7.6L27.48 30.7z" fill="#FFED00"/><path fill-rule="evenodd" clip-rule="evenodd" d="M27.48 30.7L.97 23.036 20.869 3.9l6.611 26.8z" fill="#F39200"/><path fill-rule="evenodd" clip-rule="evenodd" d="M34.075 57.484L7.502 49.836 27.48 30.7l6.594 26.784z" fill="#787FBD"/><path fill-rule="evenodd" clip-rule="evenodd" d="M54.038 38.283L27.48 30.7l19.88-19.2 6.677 26.783z" fill="#E94792"/><path fill-rule="evenodd" clip-rule="evenodd" d="M27.48 30.7l26.541 7.6-19.946 19.184L27.48 30.7z" fill="#64B6E7"/><path fill-rule="evenodd" clip-rule="evenodd" d="M.97 23.02l26.51 7.68L7.5 49.836.97 23.02z" fill="#93C461"/><path fill-rule="evenodd" clip-rule="evenodd" d="M27.48 30.7L20.87 3.9l26.491 7.6L27.48 30.7z" fill="#FFED00"/><path d="M85.016 29.031H62.85V10.69h2.835v15.669h6.838V10.689h2.836v15.669h6.837V10.689h2.836v18.342h-.016zM102.565 29.031l-3.775-5.85c-.535-.842-.988-1.393-1.345-1.684-.356-.276-.907-.422-1.669-.422h-2.333v7.94h-2.836V10.673h2.836v7.68h2.123c.729 0 1.28-.146 1.652-.421.373-.276.827-.843 1.394-1.685l3.565-5.574h3.224l-4.164 6.465c-.94 1.345-1.718 2.171-2.301 2.495.405.146.778.405 1.134.778.357.373.81.988 1.345 1.847l4.342 6.757h-3.192v.016zM110.503 13.233c1.815-1.831 4.019-2.738 6.595-2.738 2.576 0 4.796.907 6.611 2.738 1.831 1.83 2.738 4.035 2.738 6.61 0 2.593-.907 4.797-2.738 6.612-1.831 1.83-4.035 2.738-6.611 2.738-2.576 0-4.78-.907-6.595-2.738-1.814-1.831-2.722-4.035-2.722-6.611 0-2.576.908-4.78 2.722-6.611zm11.245 1.83c-1.263-1.263-2.803-1.895-4.634-1.895-1.831 0-3.37.632-4.618 1.896-1.247 1.264-1.879 2.868-1.879 4.78 0 1.944.632 3.532 1.879 4.796 1.248 1.264 2.787 1.88 4.618 1.88 1.831 0 3.387-.632 4.634-1.88 1.264-1.264 1.88-2.852 1.88-4.796 0-1.912-.632-3.5-1.88-4.78zM136.413 15.89l-5.234 13.125h-3.111l7.567-18.342h1.653l7.486 18.342h-3.111l-5.25-13.125zM151.902 24.916l-1.686 4.115h-3.111l7.567-18.342h1.653l7.486 18.342H160.7l-1.653-4.115h-7.145zm3.581-9.074l-2.593 6.4h5.185l-2.592-6.4zM230.974 38.267H62.85v1.782h168.124v-1.782zM66.56 49.366h1.944l3.257 8.296h1.118v3.322h-1.863v-1.507h-6.952v1.507h-1.863v-3.322h1.118l3.24-8.296zm.988 2.69l-2.22 5.622h4.424l-2.204-5.622zM82.18 49.366v10.095h-1.93v-6.32l-3.774 6.32h-1.67V49.366h1.929v6.53l3.824-6.53h1.62zM94.477 51.148l-1.345 1.28c-.907-.972-1.944-1.458-3.094-1.458-.972 0-1.783.324-2.447.989-.664.664-.988 1.474-.988 2.446 0 .68.145 1.28.437 1.799.292.518.713.94 1.248 1.231a3.687 3.687 0 0 0 1.782.454c.551 0 1.07-.097 1.523-.308.454-.21.972-.583 1.523-1.134l1.296 1.361c-.745.73-1.458 1.231-2.122 1.523-.664.292-1.426.421-2.269.421-1.571 0-2.851-.502-3.856-1.49-1.005-.989-1.507-2.269-1.507-3.824 0-1.005.227-1.896.68-2.69.454-.778 1.103-1.41 1.961-1.896a5.442 5.442 0 0 1 2.739-.713 5.75 5.75 0 0 1 2.414.535c.794.324 1.458.826 2.025 1.474zM95.856 49.366h5.59v1.896h-1.848v8.215h-1.944v-8.215h-1.798v-1.896zM106.551 49.366h1.944l3.889 10.095h-1.993l-.794-2.074h-4.116l-.826 2.074h-1.993l3.889-10.095zm.988 2.69l-1.361 3.467h2.706l-1.345-3.467zM114.57 49.366h1.945v3.808h3.37v-3.808h1.944v10.095h-1.944v-4.424h-3.37v4.424h-1.945V49.366zM124.844 59.477V49.382h1.944v8.377h3.387v-8.377h1.944v8.377h2.058V61h-1.799v-1.506h-7.534v-.016zM135.957 49.366h1.912v10.095h-1.912V49.366zM148.095 49.366v10.095h-1.928v-6.32l-3.775 6.32h-1.669V49.366h1.928v6.53l3.824-6.53h1.62zm-6.433-2.706h1.524c.113.195.291.324.502.422.21.097.47.145.778.145.307 0 .599-.048.842-.162.162-.08.308-.21.438-.405h1.523a2.051 2.051 0 0 1-.827 1.394c-.453.34-1.118.534-1.96.534-.567 0-1.037-.08-1.426-.243a2.224 2.224 0 0 1-.924-.68c-.259-.276-.405-.616-.47-1.005zM151.092 49.366h1.944v3.808h3.37v-3.808h1.945v10.095h-1.945v-4.424h-3.37v4.424h-1.944V49.366zM164.461 49.366h1.944l3.889 10.095h-1.993l-.794-2.074h-4.115l-.827 2.074h-1.993l3.889-10.095zm.988 2.69l-1.361 3.467h2.706l-1.345-3.467zM181.893 49.123c1.426 0 2.657.519 3.694 1.556 1.021 1.037 1.54 2.3 1.54 3.791 0 1.475-.503 2.722-1.523 3.743-1.021 1.02-2.253 1.54-3.695 1.54-1.523 0-2.771-.52-3.775-1.572-1.005-1.053-1.507-2.301-1.507-3.743 0-.973.227-1.847.697-2.658a5.126 5.126 0 0 1 1.928-1.928c.81-.502 1.685-.729 2.641-.729zm-.032 1.88c-.94 0-1.718.324-2.366.972-.632.648-.956 1.474-.956 2.479 0 1.118.405 1.993 1.199 2.657a3.325 3.325 0 0 0 2.139.762c.907 0 1.685-.324 2.333-.989.648-.664.956-1.474.956-2.43 0-.956-.324-1.782-.972-2.447-.616-.68-1.394-1.004-2.333-1.004zM198.925 51.148l-1.345 1.28c-.908-.972-1.945-1.458-3.095-1.458-.972 0-1.782.324-2.447.989-.664.664-.988 1.474-.988 2.446 0 .68.146 1.28.437 1.799.292.518.713.94 1.248 1.231a3.687 3.687 0 0 0 1.782.454c.551 0 1.07-.097 1.523-.308.454-.21.973-.583 1.524-1.134l1.296 1.361c-.746.73-1.459 1.231-2.123 1.523-.664.276-1.426.421-2.268.421-1.572 0-2.852-.502-3.857-1.49-1.004-.989-1.507-2.269-1.507-3.824 0-1.005.227-1.896.681-2.69.454-.778 1.102-1.41 1.961-1.896a5.565 5.565 0 0 1 2.738-.713c.826 0 1.636.178 2.414.535.794.324 1.458.826 2.026 1.474zM201.305 59.477V49.382h1.588c.923 0 1.604.065 2.025.178.6.162 1.086.454 1.442.892.357.437.535.94.535 1.539 0 .389-.081.73-.243 1.053a2.497 2.497 0 0 1-.794.875c.616.292 1.069.648 1.345 1.086.275.437.421.94.421 1.539a2.89 2.89 0 0 1-.438 1.556c-.291.47-.664.81-1.134 1.053-.47.227-1.102.34-1.912.34h-2.835v-.016zm1.928-8.264v2.123h.421c.47 0 .81-.097 1.053-.292.227-.194.341-.47.341-.81a.946.946 0 0 0-.324-.745c-.211-.179-.551-.276-.989-.276h-.502zm0 3.84v2.593h.486c.794 0 1.329-.097 1.62-.308.276-.194.422-.502.422-.875 0-.438-.162-.778-.487-1.037-.324-.26-.874-.373-1.62-.373h-.421zM210.041 49.366h1.912v10.095h-1.912V49.366zM213.814 49.366h5.591v1.896h-1.848v8.215h-1.944v-8.215h-1.799v-1.896zM224.492 49.366h1.945l3.888 10.095h-1.993l-.794-2.074h-4.115l-.826 2.074h-1.993l3.888-10.095zm.989 2.69l-1.361 3.467h2.706l-1.345-3.467zM178.428.4c-6.108 0-10.305 4.05-10.305 9.787 0 5.395 3.727 9.317 9.236 9.754l-6.028 8.766h7.292l8.49-12.882c1.037-1.539 1.621-3.483 1.621-5.622 0-5.752-4.165-9.803-10.306-9.803zm0 13.643c-2.106 0-3.969-1.426-3.969-3.84 0-2.414 1.863-3.84 3.969-3.84 2.139 0 3.97 1.393 3.97 3.84s-1.831 3.84-3.97 3.84zM191.424 7.06h11.18l-2.463 6.108h-2.528l-2.446 6.109h2.511l-3.807 9.43h6.74l3.808-9.43h2.771l2.462-6.109h-2.787l2.787-6.902V.967h-18.228V7.06zM230.973.967h-18.229V7.06h11.164l-2.447 6.108h-2.527l-2.463 6.109h2.528l-3.808 9.43h6.74l3.808-9.43h2.771l2.463-6.109h-2.787l2.787-6.902V.967z" fill="#0067B1"/></svg>
